**kern	**silbe	**kern	**silbe	**kern	**silbe	**kern	**silbe
*ICvox	*	*ICvox	*	*ICvox	*	*ICvox	*
*G:	*	*G:	*	*G:	*	*G:	*
*M4/4	*	*M4/4	*	*M4/4	*	*M4/4	*
*clefF4	*	*clefG2	*	*clefG2	*	*clefG2	*
r;	.	r;	.	r;	.	r;	.
=1	=1	=1	=1	=1	=1	=1	=1
1r	.	1r	.	1r	.	1r	.
=2	=2	=2	=2	=2	=2	=2	=2
1r	.	1r	.	1r	.	1r	.
=3	=3	=3	=3	=3	=3	=3	=3
1r	.	1r	.	1r	.	1r	.
=4	=4	=4	=4	=4	=4	=4	=4
1r	.	1r	.	1r	.	1r	.
=5	=5	=5	=5	=5	=5	=5	=5
4r	.	1r	.	1r	.	1r	.
8DD	Hush	.	.	.	.	.	.
8D	now	.	.	.	.	.	.
8D	don't	.	.	.	.	.	.
16BB	you	.	.	.	.	.	.
8D	cry	.	.	.	.	.	.
8.BB	_	.	.	.	.	.	.
=6	=6	=6	=6	=6	=6	=6	=6
2r	.	1r	.	1r	.	1r	.
8D	Wipe	.	.	.	.	.	.
16D	a-	.	.	.	.	.	.
8.D	-way	.	.	.	.	.	.
16E	the	.	.	.	.	.	.
[16BB	tear	.	.	.	.	.	.
=7	=7	=7	=7	=7	=7	=7	=7
8BB]	_	1r	.	1r	.	1r	.
8BB	drop	.	.	.	.	.	.
8BB	from	.	.	.	.	.	.
16AA	your	.	.	.	.	.	.
[16GG	eye	.	.	.	.	.	.
8GG]	_	.	.	.	.	.	.
8r	.	.	.	.	.	.	.
4r	.	.	.	.	.	.	.
=8	=8	=8	=8	=8	=8	=8	=8
1r	.	1r	.	1r	.	1r	.
=9	=9	=9	=9	=9	=9	=9	=9
8.r	.	1r	.	1r	.	1r	.
16DD	You're	.	.	.	.	.	.
8D	ly-	.	.	.	.	.	.
8D	-in'	.	.	.	.	.	.
16D	safe	.	.	.	.	.	.
16BB	_	.	.	.	.	.	.
16BB	in	.	.	.	.	.	.
8D	bed	.	.	.	.	.	.
8.E	_	.	.	.	.	.	.
=10	=10	=10	=10	=10	=10	=10	=10
4.r	.	1r	.	1r	.	1r	.
16DD	It	.	.	.	.	.	.
16DD	was	.	.	.	.	.	.
8D	all	.	.	.	.	.	.
16D	a	.	.	.	.	.	.
8.D	bad	.	.	.	.	.	.
8E	dream	.	.	.	.	.	.
=11	=11	=11	=11	=11	=11	=11	=11
16BB	spin-	1r	.	1r	.	1r	.
8.BB	-ning	.	.	.	.	.	.
16r	.	.	.	.	.	.	.
16BB	in	.	.	.	.	.	.
16FF#	your	.	.	.	.	.	.
16GG	head	.	.	.	.	.	.
4r	.	.	.	.	.	.	.
4r	.	.	.	.	.	.	.
=12	=12	=12	=12	=12	=12	=12	=12
1r	.	1r	.	1r	.	1r	.
=13	=13	=13	=13	=13	=13	=13	=13
8.r	.	1r	.	1r	.	1r	.
16EE	Your	.	.	.	.	.	.
8E	mind	.	.	.	.	.	.
8E	tricked	.	.	.	.	.	.
16E	you	.	.	.	.	.	.
16D	_	.	.	.	.	.	.
16D	to	.	.	.	.	.	.
8.E	feel	.	.	.	.	.	.
16F#	the	.	.	.	.	.	.
[16E	pain	.	.	.	.	.	.
=14	=14	=14	=14	=14	=14	=14	=14
8E]	_	1r	.	1r	.	1r	.
8r	.	.	.	.	.	.	.
8r	.	.	.	.	.	.	.
16r	.	.	.	.	.	.	.
16GG	of	.	.	.	.	.	.
8E	some-	.	.	.	.	.	.
8E	-one	.	.	.	.	.	.
16E	close	.	.	.	.	.	.
16C	_	.	.	.	.	.	.
16C	to	.	.	.	.	.	.
[16C	you	.	.	.	.	.	.
=15	=15	=15	=15	=15	=15	=15	=15
8C]	_	1r	.	1r	.	1r	.
16C	leav-	.	.	.	.	.	.
8.C	-ing	.	.	.	.	.	.
16D	the	.	.	.	.	.	.
[16AA	game	.	.	.	.	.	.
4AA]	_	.	.	.	.	.	.
8.r	.	.	.	.	.	.	.
16GG	of	.	.	.	.	.	.
=16	=16	=16	=16	=16	=16	=16	=16
8AA	life	1r	.	1r	.	1r	.
8r	.	.	.	.	.	.	.
4r	.	.	.	.	.	.	.
2r	.	.	.	.	.	.	.
=17	=17	=17	=17	=17	=17	=17	=17
8.r	.	1r	.	1r	.	1r	.
16EE	So	.	.	.	.	.	.
8E	here	.	.	.	.	.	.
16D	it	.	.	.	.	.	.
8.E	is	.	.	.	.	.	.
16r	.	.	.	.	.	.	.
16D	A-	.	.	.	.	.	.
8E	-noth-	.	.	.	.	.	.
16F#	-er	.	.	.	.	.	.
[16E	chance	.	.	.	.	.	.
=18	=18	=18	=18	=18	=18	=18	=18
8E]	_	1r	.	1r	.	1r	.
8r	.	.	.	.	.	.	.
4r	.	.	.	.	.	.	.
8E	Wide	.	.	.	.	.	.
16E	a-	.	.	.	.	.	.
8E	-wake	.	.	.	.	.	.
16r	.	.	.	.	.	.	.
16G	you	.	.	.	.	.	.
16G	face	.	.	.	.	.	.
=19	=19	=19	=19	=19	=19	=19	=19
8A	_	1r	.	1r	.	1r	.
16A	the	.	.	.	.	.	.
8.A	day	.	.	.	.	.	.
16r	.	.	.	.	.	.	.
16C	The	.	.	.	.	.	.
8E	dream	.	.	.	.	.	.
8F	is	.	.	.	.	.	.
8E	o-	.	.	.	.	.	.
8F	-ver	.	.	.	.	.	.
=20	=20	=20	=20	=20	=20	=20	=20
r;	.	1r	.	1r	.	1r	.
=21	=21	=21	=21	=21	=21	=21	=21
8.r	.	1r	.	1r	.	1r	.
16DD	Or	.	.	.	.	.	.
16GG	has	.	.	.	.	.	.
8GG	it	.	.	.	.	.	.
16GG	just	.	.	.	.	.	.
8r	.	.	.	.	.	.	.
16BB	be-	.	.	.	.	.	.
16D	-gun?	.	.	.	.	.	.
=21	=21	=21	=21	=21	=21	=21	=21
1r	.	.	.	.	.	.	.
=22	=22	=22	=22	=22	=22	=22	=22
.	.	1r	.	1r	.	1r	.
=22	=22	=22	=22	=22	=22	=22	=22
1r	.	.	.	.	.	.	.
=23	=23	=23	=23	=23	=23	=23	=23
.	.	1r	.	1r	.	1r	.
=23	=23	=23	=23	=23	=23	=23	=23
1r	.	.	.	.	.	.	.
=24	=24	=24	=24	=24	=24	=24	=24
.	.	1r	.	1r	.	1r	.
=24	=24	=24	=24	=24	=24	=24	=24
1r	.	.	.	.	.	.	.
=25	=25	=25	=25	=25	=25	=25	=25
.	.	1r	.	1r	.	1r	.
=25	=25	=25	=25	=25	=25	=25	=25
4.r	.	.	.	.	.	.	.
=26	=26	=26	=26	=26	=26	=26	=26
.	.	1r	.	1r	.	1r	.
16B	There's	.	.	.	.	.	.
16d	a	.	.	.	.	.	.
8d	place	.	.	.	.	.	.
8B	I	.	.	.	.	.	.
8d	like	.	.	.	.	.	.
16e	to	.	.	.	.	.	.
16d	hide	.	.	.	.	.	.
=26	=26	=26	=26	=26	=26	=26	=26
8B	_	.	.	.	.	.	.
8r	.	.	.	.	.	.	.
=27	=27	=27	=27	=27	=27	=27	=27
8.r	.	1r	.	1r	.	1r	.
16G	A	.	.	.	.	.	.
8d	door	.	.	.	.	.	.
8d	way	.	.	.	.	.	.
16d	that	.	.	.	.	.	.
16d	I	.	.	.	.	.	.
8e	_	.	.	.	.	.	.
=27	=27	=27	=27	=27	=27	=27	=27
8B	run	.	.	.	.	.	.
[8B	through	.	.	.	.	.	.
=28	=28	=28	=28	=28	=28	=28	=28
16B]	_	1r	.	1r	.	1r	.
16B	in	.	.	.	.	.	.
16A	the	.	.	.	.	.	.
[16G	night	.	.	.	.	.	.
4G]	_	.	.	.	.	.	.
4r	.	.	.	.	.	.	.
=28	=28	=28	=28	=28	=28	=28	=28
1r	.	.	.	.	.	.	.
=29	=29	=29	=29	=29	=29	=29	=29
.	.	1r	.	1r	.	1r	.
=29	=29	=29	=29	=29	=29	=29	=29
8.r	.	.	.	.	.	.	.
16BB	Re-	.	.	.	.	.	.
=30	=30	=30	=30	=30	=30	=30	=30
8D	-lax	1r	.	1r	.	1r	.
16d	child	.	.	.	.	.	.
16B	_	.	.	.	.	.	.
8d	you	.	.	.	.	.	.
16B	were	.	.	.	.	.	.
8d	there	.	.	.	.	.	.
8.e	_	.	.	.	.	.	.
=30	=30	=30	=30	=30	=30	=30	=30
4r	.	.	.	.	.	.	.
=31	=31	=31	=31	=31	=31	=31	=31
8.r	.	1r	.	1r	.	1r	.
16D	but	.	.	.	.	.	.
8d	on-	.	.	.	.	.	.
8d	-ly	.	.	.	.	.	.
16d	did-	.	.	.	.	.	.
16d	-'nt	.	.	.	.	.	.
8e	_	.	.	.	.	.	.
=31	=31	=31	=31	=31	=31	=31	=31
16B	re-	.	.	.	.	.	.
16A	-a-	.	.	.	.	.	.
4B	-lize	.	.	.	.	.	.
=32	=32	=32	=32	=32	=32	=32	=32
.	.	1r	.	1r	.	1r	.
16r	.	.	.	.	.	.	.
16A	and	.	.	.	.	.	.
16B	you	.	.	.	.	.	.
8A	were	.	.	.	.	.	.
8.B	scared	.	.	.	.	.	.
8r	.	.	.	.	.	.	.
=32	=32	=32	=32	=32	=32	=32	=32
1r	.	.	.	.	.	.	.
=33	=33	=33	=33	=33	=33	=33	=33
.	.	1r	.	1r	.	1r	.
=33	=33	=33	=33	=33	=33	=33	=33
4.r	.	.	.	.	.	.	.
=34	=34	=34	=34	=34	=34	=34	=34
.	.	1r	.	1r	.	1r	.
16c	It's	.	.	.	.	.	.
16c	a	.	.	.	.	.	.
8e	place	.	.	.	.	.	.
8d	where	.	.	.	.	.	.
8e	you	.	.	.	.	.	.
16f#	will	.	.	.	.	.	.
[16e	learn	.	.	.	.	.	.
=34	=34	=34	=34	=34	=34	=34	=34
4e]	_	.	.	.	.	.	.
=35	=35	=35	=35	=35	=35	=35	=35
8.r	.	1r	.	1r	.	1r	.
16c	to	.	.	.	.	.	.
8e	face	.	.	.	.	.	.
16d	your	.	.	.	.	.	.
16e	fears	.	.	.	.	.	.
8d	_	.	.	.	.	.	.
16r	.	.	.	.	.	.	.
16c	re-	.	.	.	.	.	.
=35	=35	=35	=35	=35	=35	=35	=35
8e	-trace	.	.	.	.	.	.
16d	the	.	.	.	.	.	.
16e	years	.	.	.	.	.	.
=36	=36	=36	=36	=36	=36	=36	=36
8d	_	1r	.	1r	.	1r	.
16r	.	.	.	.	.	.	.
16G	and	.	.	.	.	.	.
8c	ride	.	.	.	.	.	.
16c	the	.	.	.	.	.	.
8c	whims	.	.	.	.	.	.
16c	in	.	.	.	.	.	.
16d	your	.	.	.	.	.	.
[16A	mind	.	.	.	.	.	.
=36	=36	=36	=36	=36	=36	=36	=36
4A]	_	.	.	.	.	.	.
=37	=37	=37	=37	=37	=37	=37	=37
4r	.	1r	.	1r	.	1r	.
2r	.	.	.	.	.	.	.
=37	=37	=37	=37	=37	=37	=37	=37
8.r	.	.	.	.	.	.	.
16G	Co-	.	.	.	.	.	.
=38	=38	=38	=38	=38	=38	=38	=38
8e	-mman-	1r	.	1r	.	1r	.
8d	-ding	.	.	.	.	.	.
8e	in	.	.	.	.	.	.
16d	a-	.	.	.	.	.	.
8.e	-no-	.	.	.	.	.	.
16f#	-ther	.	.	.	.	.	.
[16e	world	.	.	.	.	.	.
=38	=38	=38	=38	=38	=38	=38	=38
4e]	_	.	.	.	.	.	.
=39	=39	=39	=39	=39	=39	=39	=39
4r	.	1r	.	1r	.	1r	.
8g	Sud-	.	.	.	.	.	.
16g	-den-	.	.	.	.	.	.
8.g	-ly	.	.	.	.	.	.
16r	.	.	.	.	.	.	.
16g	you	.	.	.	.	.	.
=39	=39	=39	=39	=39	=39	=39	=39
8a	hear	.	.	.	.	.	.
8a	and	.	.	.	.	.	.
=40	=40	=40	=40	=40	=40	=40	=40
8a	see	1r	.	1r	.	1r	.
16r	.	.	.	.	.	.	.
16d	this	.	.	.	.	.	.
8e	ma-	.	.	.	.	.	.
8e	-gic	.	.	.	.	.	.
8e	new	.	.	.	.	.	.
16f#	di-	.	.	.	.	.	.
[16e	-men-	.	.	.	.	.	.
=40	=40	=40	=40	=40	=40	=40	=40
8e]	_	.	.	.	.	.	.
8e	-sion	.	.	.	.	.	.
=41	=41	=41	=41	=41	=41	=41	=41
4r	.	1f#	I	1d	I	1r	.
2r	.	.	.	.	.	.	.
=41	=41	=41	=41	=41	=41	=41	=41
1r	.	.	.	.	.	.	.
=42	=42	=42	=42	=42	=42	=42	=42
.	.	4g	_	4c	_	1r	.
.	.	4r	.	4r	.	.	.
.	.	2r	.	2r	.	.	.
=42	=42	=42	=42	=42	=42	=42	=42
4r	.	.	.	.	.	.	.
=43	=43	=43	=43	=43	=43	=43	=43
8r	.	1f#	I	1d	I	1r	.
16c	will	.	.	.	.	.	.
16e	be	.	.	.	.	.	.
8e	watch-	.	.	.	.	.	.
16e	-ing	.	.	.	.	.	.
8.d	o-	.	.	.	.	.	.
16c	-ver	.	.	.	.	.	.
[16d	you	.	.	.	.	.	.
=43	=43	=43	=43	=43	=43	=43	=43
16d]	_	.	.	.	.	.	.
16c	_	.	.	.	.	.	.
8B	_	.	.	.	.	.	.
=44	=44	=44	=44	=44	=44	=44	=44
4r	.	4g	_	4c	_	1r	.
2r	.	4r	.	4r	.	.	.
.	.	2r	.	2r	.	.	.
=44	=44	=44	=44	=44	=44	=44	=44
4r	.	.	.	.	.	.	.
=45	=45	=45	=45	=45	=45	=45	=45
16r	.	1f#	I	1d	I	1r	.
16G	am	.	.	.	.	.	.
16e	gon-	.	.	.	.	.	.
16e	-na	.	.	.	.	.	.
8.e	help	.	.	.	.	.	.
16d	you	.	.	.	.	.	.
8d	see	.	.	.	.	.	.
16c	it	.	.	.	.	.	.
[16d	through	.	.	.	.	.	.
=45	=45	=45	=45	=45	=45	=45	=45
16d]	_	.	.	.	.	.	.
16c	_	.	.	.	.	.	.
8B	_	.	.	.	.	.	.
=46	=46	=46	=46	=46	=46	=46	=46
4r	.	4g	_	4c	_	1r	.
2r	.	4r	.	4r	.	.	.
.	.	2r	.	2r	.	.	.
=46	=46	=46	=46	=46	=46	=46	=46
4r	.	.	.	.	.	.	.
=47	=47	=47	=47	=47	=47	=47	=47
8r	.	1f#	I	1d	I	1r	.
16c	Will	.	.	.	.	.	.
16e	pro-	.	.	.	.	.	.
8e	-tect	.	.	.	.	.	.
8e	you	.	.	.	.	.	.
8e	in	.	.	.	.	.	.
16f#	the	.	.	.	.	.	.
[16d	night	.	.	.	.	.	.
=47	=47	=47	=47	=47	=47	=47	=47
16d]	_	.	.	.	.	.	.
16c	_	.	.	.	.	.	.
4B	_	.	.	.	.	.	.
=48	=48	=48	=48	=48	=48	=48	=48
.	.	4g	_	4c	_	1r	.
8r	.	.	.	.	.	.	.
2r	.	4r	.	4r	.	.	.
.	.	2r	.	2r	.	.	.
=48	=48	=48	=48	=48	=48	=48	=48
4r	.	.	.	.	.	.	.
=49	=49	=49	=49	=49	=49	=49	=49
8.r	.	1r	.	1r	.	1r	.
16D	am	.	.	.	.	.	.
16c	smi-	.	.	.	.	.	.
16B	_	.	.	.	.	.	.
8B	-ling	.	.	.	.	.	.
8G	next	.	.	.	.	.	.
16E	to	.	.	.	.	.	.
[16G	you	.	.	.	.	.	.
=49	=49	=49	=49	=49	=49	=49	=49
4G]	_	.	.	.	.	.	.
=50	=50	=50	=50	=50	=50	=50	=50
8.r	.	1r	.	1r	.	1r	.
16E	in	.	.	.	.	.	.
8A	si-	.	.	.	.	.	.
16A	-lent	.	.	.	.	.	.
16G	lu-	.	.	.	.	.	.
16A	-ci-	.	.	.	.	.	.
16G	-di-	.	.	.	.	.	.
16A	-ty	.	.	.	.	.	.
[16G	_	.	.	.	.	.	.
=50	=50	=50	=50	=50	=50	=50	=50
4G]	_	.	.	.	.	.	.
=51	=51	=51	=51	=51	=51	=51	=51
4r	.	1r	.	1r	.	1r	.
2r	.	.	.	.	.	.	.
=51	=51	=51	=51	=51	=51	=51	=51
1r	.	.	.	.	.	.	.
=52	=52	=52	=52	=52	=52	=52	=52
*	*	*C:	*	*C:	*	*C:	*
.	.	1r	.	1r	.	1r	.
=52	=52	=52	=52	=52	=52	=52	=52
*C:	*	*	*	*	*	*	*
1r	.	.	.	.	.	.	.
=53	=53	=53	=53	=53	=53	=53	=53
.	.	1r	.	1r	.	1r	.
=53	=53	=53	=53	=53	=53	=53	=53
1r	.	.	.	.	.	.	.
=54	=54	=54	=54	=54	=54	=54	=54
.	.	1r	.	1r	.	1r	.
=54	=54	=54	=54	=54	=54	=54	=54
1r	.	.	.	.	.	.	.
=55	=55	=55	=55	=55	=55	=55	=55
.	.	1r	.	1r	.	1r	.
=55	=55	=55	=55	=55	=55	=55	=55
1r	.	.	.	.	.	.	.
=56	=56	=56	=56	=56	=56	=56	=56
.	.	1r	.	1r	.	1r	.
=56	=56	=56	=56	=56	=56	=56	=56
1r	.	.	.	.	.	.	.
=57	=57	=57	=57	=57	=57	=57	=57
.	.	1r	.	1r	.	1r	.
=57	=57	=57	=57	=57	=57	=57	=57
1r	.	.	.	.	.	.	.
=58	=58	=58	=58	=58	=58	=58	=58
.	.	1r	.	1r	.	1r	.
=58	=58	=58	=58	=58	=58	=58	=58
1r	.	.	.	.	.	.	.
=59	=59	=59	=59	=59	=59	=59	=59
.	.	1r	.	1r	.	1r	.
=59	=59	=59	=59	=59	=59	=59	=59
1r	.	.	.	.	.	.	.
=60	=60	=60	=60	=60	=60	=60	=60
.	.	1r	.	1r	.	1r	.
=60	=60	=60	=60	=60	=60	=60	=60
1r	.	.	.	.	.	.	.
=61	=61	=61	=61	=61	=61	=61	=61
.	.	1r	.	1r	.	1r	.
=61	=61	=61	=61	=61	=61	=61	=61
1r	.	.	.	.	.	.	.
=62	=62	=62	=62	=62	=62	=62	=62
.	.	1r	.	1r	.	1r	.
=62	=62	=62	=62	=62	=62	=62	=62
1r	.	.	.	.	.	.	.
=63	=63	=63	=63	=63	=63	=63	=63
.	.	1r	.	1r	.	1r	.
=63	=63	=63	=63	=63	=63	=63	=63
1r	.	.	.	.	.	.	.
=64	=64	=64	=64	=64	=64	=64	=64
.	.	1r	.	1r	.	1r	.
=64	=64	=64	=64	=64	=64	=64	=64
1r	.	.	.	.	.	.	.
=65	=65	=65	=65	=65	=65	=65	=65
.	.	1r	.	1r	.	1r	.
=65	=65	=65	=65	=65	=65	=65	=65
1r	.	.	.	.	.	.	.
=66	=66	=66	=66	=66	=66	=66	=66
.	.	1r	.	1r	.	1r	.
=66	=66	=66	=66	=66	=66	=66	=66
1r	.	.	.	.	.	.	.
=67	=67	=67	=67	=67	=67	=67	=67
.	.	1r	.	1r	.	1r	.
=67	=67	=67	=67	=67	=67	=67	=67
1r	.	.	.	.	.	.	.
=68	=68	=68	=68	=68	=68	=68	=68
.	.	1r	.	1r	.	1r	.
=68	=68	=68	=68	=68	=68	=68	=68
1r	.	.	.	.	.	.	.
=69	=69	=69	=69	=69	=69	=69	=69
*	*	*G:	*	*G:	*	*G:	*
.	.	1r	.	1r	.	1r	.
=69	=69	=69	=69	=69	=69	=69	=69
*G:	*	*	*	*	*	*	*
4.r	.	.	.	.	.	.	.
=70	=70	=70	=70	=70	=70	=70	=70
.	.	1r	.	1r	.	1r	.
16B	If	.	.	.	.	.	.
16B	you	.	.	.	.	.	.
8d	o-	.	.	.	.	.	.
16B	-pen	.	.	.	.	.	.
16B	your	.	.	.	.	.	.
8d	mind	.	.	.	.	.	.
16e	for	.	.	.	.	.	.
[16d	me	.	.	.	.	.	.
=70	=70	=70	=70	=70	=70	=70	=70
8d]	_	.	.	.	.	.	.
8r	.	.	.	.	.	.	.
=71	=71	=71	=71	=71	=71	=71	=71
8.r	.	1r	.	1r	.	1r	.
16G	You	.	.	.	.	.	.
8d	won't	.	.	.	.	.	.
16d	re-	.	.	.	.	.	.
8.d	-ly	.	.	.	.	.	.
8e	on	.	.	.	.	.	.
=71	=71	=71	=71	=71	=71	=71	=71
16B	o-	.	.	.	.	.	.
16B	-pen	.	.	.	.	.	.
[8B	eyes	.	.	.	.	.	.
=72	=72	=72	=72	=72	=72	=72	=72
8B]	_	1r	.	1r	.	1r	.
16B	to	.	.	.	.	.	.
[16B	see	.	.	.	.	.	.
4B]	_	.	.	.	.	.	.
4r	.	.	.	.	.	.	.
=72	=72	=72	=72	=72	=72	=72	=72
1r	.	.	.	.	.	.	.
=73	=73	=73	=73	=73	=73	=73	=73
.	.	1r	.	1r	.	1r	.
=73	=73	=73	=73	=73	=73	=73	=73
8.r	.	.	.	.	.	.	.
16BB	The	.	.	.	.	.	.
=74	=74	=74	=74	=74	=74	=74	=74
8d	walls	1r	.	1r	.	1r	.
8B	you	.	.	.	.	.	.
8d	built	.	.	.	.	.	.
16e	with-	.	.	.	.	.	.
16d	-in	.	.	.	.	.	.
16c	_	.	.	.	.	.	.
8.B	_	.	.	.	.	.	.
=74	=74	=74	=74	=74	=74	=74	=74
4r	.	.	.	.	.	.	.
=75	=75	=75	=75	=75	=75	=75	=75
8r	.	1r	.	1r	.	1r	.
8B	come	.	.	.	.	.	.
8g	tum-	.	.	.	.	.	.
16f#	-bling	.	.	.	.	.	.
8.e	down	.	.	.	.	.	.
16f#	and	.	.	.	.	.	.
16f#	a	.	.	.	.	.	.
=75	=75	=75	=75	=75	=75	=75	=75
8g	new	.	.	.	.	.	.
8f#	world	.	.	.	.	.	.
=76	=76	=76	=76	=76	=76	=76	=76
8e	will	1r	.	1r	.	1r	.
16f#	be-	.	.	.	.	.	.
[16e	-gin	.	.	.	.	.	.
4e]	_	.	.	.	.	.	.
4r	.	.	.	.	.	.	.
=76	=76	=76	=76	=76	=76	=76	=76
1r	.	.	.	.	.	.	.
=77	=77	=77	=77	=77	=77	=77	=77
.	.	1r	.	1r	.	1r	.
=77	=77	=77	=77	=77	=77	=77	=77
4r	.	.	.	.	.	.	.
=78	=78	=78	=78	=78	=78	=78	=78
8e	Li-	1r	.	1r	.	1r	.
8d	-ving	.	.	.	.	.	.
8e	twice	.	.	.	.	.	.
16d	at	.	.	.	.	.	.
8.e	once	.	.	.	.	.	.
16f#	you	.	.	.	.	.	.
[16e	learn	.	.	.	.	.	.
=78	=78	=78	=78	=78	=78	=78	=78
8e]	_	.	.	.	.	.	.
8r	.	.	.	.	.	.	.
=79	=79	=79	=79	=79	=79	=79	=79
8.r	.	1r	.	1r	.	1r	.
16e	You're	.	.	.	.	.	.
8e	safe	.	.	.	.	.	.
16d	from	.	.	.	.	.	.
16e	pain	.	.	.	.	.	.
8d	_	.	.	.	.	.	.
16d	in	.	.	.	.	.	.
16d	the	.	.	.	.	.	.
=79	=79	=79	=79	=79	=79	=79	=79
8e	dream	.	.	.	.	.	.
16e	do-	.	.	.	.	.	.
16e	-main	.	.	.	.	.	.
=80	=80	=80	=80	=80	=80	=80	=80
8d	_	1r	.	1r	.	1r	.
16r	.	.	.	.	.	.	.
16G	A	.	.	.	.	.	.
8c	soul	.	.	.	.	.	.
8c	set	.	.	.	.	.	.
16c	free	.	.	.	.	.	.
16d	to	.	.	.	.	.	.
[8A	fly	.	.	.	.	.	.
=80	=80	=80	=80	=80	=80	=80	=80
4A]	_	.	.	.	.	.	.
=81	=81	=81	=81	=81	=81	=81	=81
4r	.	1r	.	1r	.	1r	.
2r	.	.	.	.	.	.	.
=81	=81	=81	=81	=81	=81	=81	=81
8.r	.	.	.	.	.	.	.
16G	A	.	.	.	.	.	.
=82	=82	=82	=82	=82	=82	=82	=82
8e	round	1r	.	1r	.	1r	.
8d	trip	.	.	.	.	.	.
8e	jour-	.	.	.	.	.	.
16d	-ney	.	.	.	.	.	.
8.e	in	.	.	.	.	.	.
16f#	your	.	.	.	.	.	.
[16e	head	.	.	.	.	.	.
=82	=82	=82	=82	=82	=82	=82	=82
4e]	_	.	.	.	.	.	.
=83	=83	=83	=83	=83	=83	=83	=83
4r	.	1r	.	1r	.	1r	.
8g	Mas-	.	.	.	.	.	.
16g	-ter	.	.	.	.	.	.
8.g	of	.	.	.	.	.	.
16g	i-	.	.	.	.	.	.
[16a	-llu-	.	.	.	.	.	.
=83	=83	=83	=83	=83	=83	=83	=83
8a]	_	.	.	.	.	.	.
8a	-sion	.	.	.	.	.	.
=84	=84	=84	=84	=84	=84	=84	=84
8.a	can	1r	.	1r	.	1r	.
16d	you	.	.	.	.	.	.
8e	re-	.	.	.	.	.	.
16f#	-a-	.	.	.	.	.	.
8.e	-lize	.	.	.	.	.	.
16r	.	.	.	.	.	.	.
16d	your	.	.	.	.	.	.
=84	=84	=84	=84	=84	=84	=84	=84
8e	dream's	.	.	.	.	.	.
16f#	a-	.	.	.	.	.	.
8e	-live	.	.	.	.	.	.
=85	=85	=85	=85	=85	=85	=85	=85
.	.	1f#	I	1d	I	1r	.
16r	.	.	.	.	.	.	.
16d	You	.	.	.	.	.	.
16d	can	.	.	.	.	.	.
16e	be	.	.	.	.	.	.
16d	_	.	.	.	.	.	.
16c	the	.	.	.	.	.	.
16c	guide	.	.	.	.	.	.
8B	_	.	.	.	.	.	.
8B	but	.	.	.	.	.	.
=85	=85	=85	=85	=85	=85	=85	=85
1r	.	.	.	.	.	.	.
=86	=86	=86	=86	=86	=86	=86	=86
.	.	4g	_	4c	_	1r	.
.	.	4r	.	4r	.	.	.
.	.	2r	.	2r	.	.	.
=86	=86	=86	=86	=86	=86	=86	=86
4r	.	.	.	.	.	.	.
=87	=87	=87	=87	=87	=87	=87	=87
8r	.	1f#	I	1d	I	1r	.
16c	will	.	.	.	.	.	.
16e	be	.	.	.	.	.	.
8e	watch-	.	.	.	.	.	.
16e	-ing	.	.	.	.	.	.
8.d	o-	.	.	.	.	.	.
16c	-ver	.	.	.	.	.	.
[16d	you	.	.	.	.	.	.
=87	=87	=87	=87	=87	=87	=87	=87
16d]	_	.	.	.	.	.	.
16c	_	.	.	.	.	.	.
8B	_	.	.	.	.	.	.
=88	=88	=88	=88	=88	=88	=88	=88
4r	.	4g	_	4c	_	1r	.
2r	.	4r	.	4r	.	.	.
.	.	2r	.	2r	.	.	.
=88	=88	=88	=88	=88	=88	=88	=88
4r	.	.	.	.	.	.	.
=89	=89	=89	=89	=89	=89	=89	=89
16r	.	1f#	I	1d	I	1r	.
16G	am	.	.	.	.	.	.
16e	gon-	.	.	.	.	.	.
16e	-na	.	.	.	.	.	.
8.e	help	.	.	.	.	.	.
16d	you	.	.	.	.	.	.
8d	see	.	.	.	.	.	.
16c	it	.	.	.	.	.	.
[16d	through	.	.	.	.	.	.
=89	=89	=89	=89	=89	=89	=89	=89
16d]	_	.	.	.	.	.	.
16e	_	.	.	.	.	.	.
8f#	_	.	.	.	.	.	.
=90	=90	=90	=90	=90	=90	=90	=90
4r	.	4g	_	4c	_	1r	.
2r	.	4r	.	4r	.	.	.
.	.	2r	.	2r	.	.	.
=90	=90	=90	=90	=90	=90	=90	=90
4r	.	.	.	.	.	.	.
=91	=91	=91	=91	=91	=91	=91	=91
8r	.	1f#	I	1d	I	4r	.
16c	Will	.	.	.	.	.	.
16e	pro-	.	.	.	.	.	.
8e	-tect	.	.	.	.	2a	I
8e	you	.	.	.	.	.	.
8e	in	.	.	.	.	.	.
16f#	the	.	.	.	.	.	.
[16d	night	.	.	.	.	.	.
=91	=91	=91	=91	=91	=91	=91	=91
16d]	_	.	.	.	.	16a	I
16c	_	.	.	.	.	16b	_
4B	_	.	.	.	.	16a	_
.	.	.	.	.	.	[16g	_
=92	=92	=92	=92	=92	=92	=92	=92
.	.	4g	_	4c	_	4g]	_
8r	.	.	.	.	.	.	.
2r	.	4r	.	4r	.	4r	.
.	.	2r	.	2r	.	2r	.
=92	=92	=92	=92	=92	=92	=92	=92
4r	.	.	.	.	.	.	.
=93	=93	=93	=93	=93	=93	=93	=93
8.r	.	1r	.	1r	.	1r	.
16D	am	.	.	.	.	.	.
16c	smi-	.	.	.	.	.	.
16B	_	.	.	.	.	.	.
8B	-ling	.	.	.	.	.	.
8G	next	.	.	.	.	.	.
16E	to	.	.	.	.	.	.
[16G	you	.	.	.	.	.	.
=93	=93	=93	=93	=93	=93	=93	=93
2G]	_	.	.	.	.	.	.
=94	=94	=94	=94	=94	=94	=94	=94
.	.	1r	.	1r	.	1r	.
2r	.	.	.	.	.	.	.
=94	=94	=94	=94	=94	=94	=94	=94
1r	.	.	.	.	.	.	.
=95	=95	=95	=95	=95	=95	=95	=95
.	.	1r	.	1r	.	1r	.
=95	=95	=95	=95	=95	=95	=95	=95
1r	.	.	.	.	.	.	.
=96	=96	=96	=96	=96	=96	=96	=96
.	.	1r	.	1r	.	1r	.
=96	=96	=96	=96	=96	=96	=96	=96
1r	.	.	.	.	.	.	.
=97	=97	=97	=97	=97	=97	=97	=97
.	.	1r	.	1r	.	1r	.
=97	=97	=97	=97	=97	=97	=97	=97
1r	.	.	.	.	.	.	.
=98	=98	=98	=98	=98	=98	=98	=98
.	.	1r	.	1r	.	1r	.
=98	=98	=98	=98	=98	=98	=98	=98
1r	.	.	.	.	.	.	.
=99	=99	=99	=99	=99	=99	=99	=99
.	.	1r	.	1r	.	1r	.
=99	=99	=99	=99	=99	=99	=99	=99
1r	.	.	.	.	.	.	.
.	.	r;	.	r;	.	r;	.
r;	.	r;	.	r;	.	r;	.
*	*	*-	*-	*-	*-	*-	*-
r;	.	.	.
*-	*-	*	*
!!!ENC: Nathaniel Condit-Schultz